src/assets/icons/graphql.svg

<?xml version="1.0" encoding="utf-8"?><!-- Uploaded to: SVG Repo, www.svgrepo.com, Generator: SVG Repo Mixer Tools -->
<svg width="800px" height="800px" viewBox="0 0 16 16" fill="none" xmlns="http://www.w3.org/2000/svg">
<path fill-rule="evenodd" clip-rule="evenodd" d="M2.5 5.16065C2.5 4.98122 2.59614 4.81555 2.75193 4.72653L7.75193 1.86938C7.90565 1.78155 8.09435 1.78155 8.24807 1.86938L13.2481 4.72653C13.4039 4.81555 13.5 4.98122 13.5 5.16065V10.8394C13.5 11.0188 13.4039 11.1845 13.2481 11.2735L8.24807 14.1306C8.09435 14.2185 7.90565 14.2185 7.75193 14.1306L2.75193 11.2735C2.59614 11.1845 2.5 11.0188 2.5 10.8394V5.16065ZM1 10.8394C1 11.5571 1.38457 12.2198 2.00772 12.5758L7.00772 15.433C7.62259 15.7843 8.37741 15.7843 8.99228 15.433L13.9923 12.5758C14.6154 12.2198 15 11.5571 15 10.8394V5.16065C15 4.44293 14.6154 3.78025 13.9923 3.42416L8.99228 0.567019C8.37741 0.215667 7.62259 0.215667 7.00772 0.567019L2.00772 3.42416C1.38457 3.78025 1 4.44293 1 5.16065V10.8394Z" fill="#E10098"/>
<path fill-rule="evenodd" clip-rule="evenodd" d="M8 0.270645L1.18226 11.75H14.8177L8 0.270645ZM3.81774 10.25L8 3.20812L12.1823 10.25H3.81774Z" fill="#fca5e1"/>
</svg>

<svg xmlns="http://www.w3.org/2000/svg" width="800" height="800" fill="none" viewBox="0 0 16 16"><path fill="#E10098" fill-rule="evenodd" d="M2.5 5.16a.5.5 0 0 1 .252-.433l5-2.858a.5.5 0 0 1 .496 0l5 2.858a.5.5 0 0 1 .252.434v5.678a.5.5 0 0 1-.252.434l-5 2.858a.5.5 0 0 1-.496 0l-5-2.857a.5.5 0 0 1-.252-.435zM1 10.84a2 2 0 0 0 1.008 1.736l5 2.857a2 2 0 0 0 1.984 0l5-2.857A2 2 0 0 0 15 10.839V5.161a2 2 0 0 0-1.008-1.737l-5-2.857a2 2 0 0 0-1.984 0l-5 2.857A2 2 0 0 0 1 5.161z" clip-rule="evenodd"/><path fill="#fca5e1" fill-rule="evenodd" d="M8 .27 1.182 11.75h13.636zm-4.182 9.98L8 3.208l4.182 7.042z" clip-rule="evenodd"/></svg>
